X:1
T:Choir Warm-ups with Solmisation
T:So-Mi Warm-up with Solmisation
T:Danish National Choir
T:Transcribed by Lisa Belser
C:Danish National Choir
%%score 1 2
L:1/8
Q:1/4=120
M:4/4
K:F
V:1 treble nm="Soprano" snm="S."
V:2 treble nm="Alto" snm="A."
V:1
 c2 A2 A4 | c2 Ac A4 | cAAc AccA | cAAc A2 A2 | F2 D2 D4 | F2 DF D4 | FDDF DFFD | FDDF D2 D2 | z8 | %9
w: so mi mi|so mi so mi|so mi mi so mi so so mi|so mi mi so mi mi|do la la|do la do la|do la la do la do do la|do la la do la la||
 c2 A2 A4 | c2 Ac A4 | cAAc AccA | cAAc A2 A2 | F2 D2 D4 | F2 DF D4 | FDDF DFFD | FDDF D2 D2 | %17
w: so mi mi|so mi so mi|so mi mi so mi so so mi|so mi mi so mi mi|do la la|do la do la|do la la do la do do la|do la la do la la|
 z8 |] %18
w: |
V:2
 c2 A2 A4 | c2 Ac A4 | cAAc AccA | cAAc A2 A2 | F2 D2 D4 | F2 DF D4 | FDDF DFFD | FDDF D2 D2 | z8 | %9
w: so mi mi|so mi so mi|so mi mi so mi so so mi|so mi mi so mi mi|do la la|do la do la|do la la do la do do la|do la la do la la||
 z4 c2 A2 | A4 c2 Ac | A4 cAAc | AccA cAAc | A2 A2 F2 D2 | D4 F2 DF | D4 FDDF | DFFD FDDF | %17
w: so mi|mi so mi so|mi so mi mi so|mi so so mi so mi mi so|mi mi do la|la do la do|la do la la do|la do do la do la la do|
 D2 D2 z4 |] %18
w: la la|

